www/assets/icons/wifi_off.svg

<svg width="24" height="24" viewBox="0 0 24 24" xmlns="http://www.w3.org/2000/svg" fill='currentColor'><path d="M22.995 10.105C19.155 6.26502 13.805 4.86502 8.84501 5.88502L11.365 8.40502C14.835 8.23502 18.355 9.45502 20.995 12.105L22.995 10.105ZM18.995 14.105C17.705 12.815 16.155 11.975 14.505 11.545L18.035 15.075L18.995 14.105ZM2.005 4.15502L5.07501 7.20502C3.60501 7.92502 2.225 8.88502 1.005 10.105L2.995 12.105C4.235 10.865 5.665 9.94502 7.195 9.33502L9.43501 11.575C7.81501 11.995 6.275 12.835 5.005 14.105V14.115L6.995 16.105C8.355 14.745 10.135 14.065 11.915 14.045L18.985 21.105L20.255 19.845L3.295 2.89502L2.005 4.15502ZM9.005 18.105L12.005 21.105L15.005 18.105C13.355 16.445 10.665 16.445 9.005 18.105Z"/></svg>

<svg xmlns="http://www.w3.org/2000/svg" width="24" height="24" viewBox="0 0 24 24" fill='currentColor'><path d="M22.995 10.105c-3.84-3.84-9.19-5.24-14.15-4.22l2.52 2.52c3.47-.17 6.99 1.05 9.63 3.7zm-4 4a9.8 9.8 0 0 0-4.49-2.56l3.53 3.53zm-16.99-9.95 3.07 3.05c-1.47.72-2.85 1.68-4.07 2.9l1.99 2c1.24-1.24 2.67-2.16 4.2-2.77l2.24 2.24a9.7 9.7 0 0 0-4.43 2.53v.01l1.99 1.99a7.04 7.04 0 0 1 4.92-2.06l7.07 7.06 1.27-1.26-16.96-16.95zm7 13.95 3 3 3-3a4.237 4.237 0 0 0-6 0"/></svg>
